X: 162
T:La Poule
% Nottingham Music Database
S:Trad, arr Phil Rowe
M:6/8
K:D
A|"D"Aff "A"ced|"D"A3 -A2B|"D"A2F A2F|"A7"A2G E2A|
"D"Aff "A"ced|"G"B3 BAG|"D"FAA "A"GEC|"A"E3 "D"D2::
F|"A"GEC A2G|"D"FAd f2d|"A7"gec A2G|"D"FBA A2F|
"A"GEC A2G|"D"FAd f2d|"A"ceg bac|"A"e3 "D"d2::
F|"Bm"B3 d3|"F#7"c3 ec^A|"Bm"Bdf "Em"gec|"Bm"B3 "F#7"^A2F|"Bm"B3 d3|
"Em"G3 c2e| "Bm"d2B "F#7"c2^A| "Bm"B3 -B2:|


